svgs/sharp-solid/tablet-rugged.svg

<svg xmlns="http://www.w3.org/2000/svg" viewBox="0 0 448 512"><!--! Font Awesome Pro 6.6.0 by @fontawesome - https://fontawesome.com License - https://fontawesome.com/license (Commercial License) Copyright 2024 Fonticons, Inc. --><path d="M352 64l0 384L96 448 96 64l256 0zM96 0L32 0l0 48L0 64l0 96 32 16 0 16L0 208l0 96 32 16 0 16L0 352l0 96 32 16 0 48 64 0 256 0 64 0 0-48 32-16 0-96-32-16 0-16 32-16 0-96-32-16 0-16 32-16 0-96L416 48l0-48L352 0 96 0z"/></svg>

<svg xmlns="http://www.w3.org/2000/svg" viewBox="0 0 448 512"><!--! Font Awesome Pro 6.4.2 by @fontawesome - https://fontawesome.com License - https://fontawesome.com/license (Commercial License) Copyright 2023 Fonticons, Inc. --><path d="M352 64V448H96V64H352zM96 0H32V48L0 64v96l32 16v16L0 208v96l32 16v16L0 352v96l32 16v48H96 352h64V464l32-16V352l-32-16V320l32-16V208l-32-16V176l32-16V64L416 48V0H352 96z"/></svg>
